X:1
T:Title
%%score { ( 1 4 ) | ( 2 3 ) }
L:1/8
M:4/4
K:D
V:1 treble nm="Grand Piano"
V:4 treble 
V:2 bass 
V:3 bass 
V:1
 z4 z2[Q:1/4=100] D>E | F2 [FA]>[FB] [Fc]2 [Fd]2 | F2 =F2 ^F2 D>E | F2 [FA]>[FB] [Fc]2 [Fd]2 | %4
 G2 F2 G2 E>F | G2 c>=c ^c2 [EG]>[CA] | [DF]2 [FB]>[F^A] [FB]2 F>F | E2 ^G>A B2 c2 | %8
[M:3/4] A2 A2 A2 |[M:1/4] [GB]>[Gc] |[M:4/4] [Fd]2 [Fc]>[FB] [DF]2 [DFB]2 | %11
 [FB]2 z2 [D,A,]2 [FB]>[Fc] | [Fd]2 [Fc]>[FB] [DF]2 [DFB]2 | [GB]2 z2 [E,A,]2 [EGc]>[G=c] | %14
 [Gc]2 [ce]>[Bd] [Ac]2 [CGB]>[G^A] | [GB]2 [Bd]>[Ac] [GB]2 [EGc]>[DGB] | %16
 [A,CEG]2 [A,C^DF]2 [A,CEG]2 [A,=F^G]2 | [DFA]2 [=CFA]2 [^CGA]2 [GB]>[Gc] | %18
 [Fd]2 [Fc]>[FB] [DF]2 [FB]2 | [FB]2 [DF]4 [FB]>[Fc] | [Fd]2 [Fc]>[FB] [DF]2 [FB]2 | B2 G4 F>F | %22
 G2 ^G2 A2 ^A>A | B2 B2 c2 c>c | z2 e2 z4 |[M:9/8] d3 [Gc]3 [Fd]3 |] %26
V:2
 z4 z2 [D,F,]>[D,G,D] | [D,A,D]2 [D,D]>[D,D] [D,A,]2 [D,A,]2 | %2
 [D,A,D]2 [D,^G,D]2 [D,A,D]2 [D,F,]>[D,=G,D] | [D,A,D]2 [D,D]>[D,D] [D,A,]2 [D,A,]2 | %4
 [E,A,C]2 [^D,A,=C]2 [E,A,^C]2[K:treble] [A,C]>[A,D] | %5
 [A,E]2 [A,G]>[A,G] [A,G]2[K:bass] [A,,A,]>[A,,A,] | [D,A,]2 [D,D]>[D,D] [D,D]2 [D,A,D]>[^D,A,=C] | %7
 [E,A,C]2 [E,B,D]>[E,A,C] [E,^G,D]2 [E,G,E]2 |[M:3/4] [A,C]2 [G,CE]2 [F,D]2 | %9
[M:1/4] [E,A,]>[E,A,] |[M:4/4] [D,A,]2 [D,A,]>[D,A,] [D,A,]2 [A,,D,A,]2 | %11
 [D,A,D]2 [A,,D,A,]2 z2 [D,A,]>[D,A,] | [D,A,]2 [D,A,]>[D,A,] [D,A,]2 [A,,D,A,]2 | %13
 [E,A,C]2 [A,,A,]2 z2 A,>[A,^D] | [E,A,E]2 [A,,A,]2 [E,A,]2 A,>[A,C] | %15
 [E,A,C]2 [A,,A,]2 [E,A,]2 A,>A, | E,2 A,,2 E,2 A,,2 | D,2 ^D,2 E,2 A,>A, | %18
 [D,A,]2 [D,A,]>[D,A,] [D,A,]2 [D,D]2 | [D,D]2 [D,A,]4 [D,A,]>[E,A,] | %20
 [D,A,]2 [D,A,]>[D,A,] [D,A,]2 [^D,A,]2 | [E,G,E]2 [E,B,E]4 [^D,B,]>[D,B,] | %22
 [E,A,C]2 [=F,B,D]2 [^F,A,D]2 [F,CE]>[K:treble][F,EF] | [G,DE]2 [^G,DE]2 [A,E]2 [^A,EG]>[A,EG] | %24
 [B,DF]2 [CA]2 [DA]2 [G,B,G]2 |[M:9/8] [A,F]3[K:bass] [A,,A,]3 [D,A,]3 |] %26
V:3
 x8 | x8 | x8 | x8 | x6[K:treble] x2 | x6[K:bass] x2 | x8 | x8 |[M:3/4] x6 |[M:1/4] x2 | %10
[M:4/4] z2 A,,2 z4 | z4 z2 A,,2 | z2 A,,2 z4 | z4 z2 A,,2 | z4 z2 A,,2 | z4 z2 A,,2 | x8 | x8 | %18
 x8 | x8 | x8 | x8 | x15/2[K:treble] x/ | x8 | x8 |[M:9/8] x3[K:bass] x6 |] %26
V:4
 x8 | x8 | x8 | x8 | x8 | x8 | x8 | x8 |[M:3/4] x6 |[M:1/4] x2 |[M:4/4] x8 | z2 [DF]4 z2 | x8 | %13
 z2 [CEG]4 z2 | x8 | x8 | x8 | x8 | x8 | x8 | x8 | x8 | x8 | x8 | d2 z E f2 e2 |[M:9/8] x9 |] %26

